X: 23
T: Zan pan gege hui kouli
%%abc-version 2.0
%%abcx-abcm2ps-target-version 5.9.1 (29 Sep 2008)
%%abc-creator hum2abc beta
%%abcx-conversion-date 2013/10/02 07:52:29
%%abc-edited-by Helmut Schaffrath
%%humdrum-veritas 3501881652
%%humdrum-veritas-data 583021201
%%continueall 1
%%barnumbers 0
L: 1/8
M: 2/4
K: D
d> e f f [I:setbarnb 1]| 
f e d B | 
dA2B | 
E4 | 
d> e f f | 
f e d B | 
d> A A d | 
BA3 |]  



